X: 11
T:Coleg y Br Fyrgol Abertawe
% Nottingham Music Database
S:Helen, via EF
M:4/4
L:1/4
K:G
B|"Em"eB "E7"B/2d/2c/2B/2|"Am"cA "D"A/2c/2B/2A/2|\
"G"B/2A/2G/2B/2 "D"A/2G/2F/2A/2|"Em"G/2F/2E/2G/2 "B7"FB|
"Em"eB "E7"B/2d/2c/2B/2|"Am"cA "D"A/2c/2B/2A/2|"G"B/2A/2G/2B/2 "D"A/2G/2F/2A/2\
|"Em"G"Am"E "Em"E:|
B|"Em"e/2f/2g/2f/2 ee|"B7""D"f/2g/2a/2g/2 ff|"Em"e/2f/2g/2f/2 ee|\
"Am"f/2e/2^d/2c/2 "B7"BB|
"Em"e/2f/2g/2f/2 ee|"B7""D"f/2g/2a/2g/2 ff|"Am"g/2f/2e/2g/2 "B7"f/2e/2^d/2f/2|\
"Em"e"Am"e "Em"e:|


